X: 29447
T: Night In Nanchang
R: jig
M: 6/8
K: Aminor
A2e dcB|A2c BGE|~A3 cde|ged dcB|
A2e dcB|A2c BGE|AB/c/d ege|dcA BAG|
A2e dcB|A2c BGE|~A3 cde|ged dcB|
A2e dcB|A2c BGE|AB/c/d ege|dcA AB/c/d||
e2a ged|cec dcB|~c3 dcd|ege deg|
e2a ged|cec dcB|AB/c/d ege|dcA AB/c/d
e2a ged|cec dcB|~c3 dcd|ege deg|
a2g edc|dge dcB|AB/c/d ege|dcA BAG||

